packages/kaspersky-hexa-ui-icons/src/iconsSVGs/64x42/FlagDz.svg

<svg xmlns="http://www.w3.org/2000/svg" width="64" height="42" fill="none" viewBox="0 0 64 42"><g clip-path="url(#a)"><rect width="64" height="42" fill="#fff" rx="5"/><mask id="b" fill="#fff"><path d="M30.2858 0H59c2.7614 0 5 2.2386 5 5v32c0 2.7614-2.2386 5-5 5H30.2858z"/></mask><path fill="#fff" stroke="#f5f5f5" stroke-width="2" d="M30.2858 0H59c2.7614 0 5 2.2386 5 5v32c0 2.7614-2.2386 5-5 5H30.2858z" mask="url(#b)"/><path fill="#048345" fill-rule="evenodd" d="M0 42h32V0H0z" clip-rule="evenodd"/><path fill="#e81b42" fill-rule="evenodd" d="m36.3999 23.184-3.2916 2.3465 1.2145-3.8556-3.2488-2.4054 4.0422-.0364L36.3999 15.4l1.2837 3.8331 4.0422.0364-3.2488 2.4054 1.2145 3.8556z" clip-rule="evenodd"/><path fill="#e81b42" fill-rule="evenodd" d="M37.1282 11.7994c-1.4892-.709-3.1738-1.1085-4.9577-1.1085-6.0635 0-10.979 4.6156-10.979 10.3091s4.9155 10.3091 10.979 10.3091c1.7839 0 3.4684-.3995 4.9577-1.1084-2.159 2.1084-5.0607 3.3993-8.2513 3.3993C22.2071 33.6 16.8 27.9588 16.8 21S22.2071 8.4 28.8769 8.4c3.1907 0 6.0923 1.2909 8.2513 3.3994" clip-rule="evenodd"/></g><defs><clipPath id="a"><rect width="64" height="42" fill="#fff" rx="5"/></clipPath></defs></svg>

<svg width="64" height="42" viewBox="0 0 64 42" fill="none" xmlns="http://www.w3.org/2000/svg">
<g clip-path="url(#clip0_37941_2230)">
<rect width="64" height="42" rx="5" fill="white"/>
<mask id="path-2-inside-1_37941_2230" fill="white">
<path d="M30.2858 0H59C61.7614 0 64 2.23858 64 5V37C64 39.7614 61.7614 42 59 42H30.2858V0Z"/>
</mask>
<path d="M30.2858 0H59C61.7614 0 64 2.23858 64 5V37C64 39.7614 61.7614 42 59 42H30.2858V0Z" fill="white" stroke="#F5F5F5" stroke-width="2" mask="url(#path-2-inside-1_37941_2230)"/>
<path fill-rule="evenodd" clip-rule="evenodd" d="M0 42H32V0H0V42Z" fill="#048345"/>
<path fill-rule="evenodd" clip-rule="evenodd" d="M36.3999 23.184L33.1083 25.5305L34.3228 21.6749L31.074 19.2695L35.1162 19.2331L36.3999 15.4L37.6836 19.2331L41.7258 19.2695L38.477 21.6749L39.6915 25.5305L36.3999 23.184Z" fill="#E81B42"/>
<path fill-rule="evenodd" clip-rule="evenodd" d="M37.1282 11.7994C35.639 11.0904 33.9544 10.6909 32.1705 10.6909C26.107 10.6909 21.1915 15.3065 21.1915 21C21.1915 26.6936 26.107 31.3091 32.1705 31.3091C33.9544 31.3091 35.6389 30.9096 37.1282 30.2007C34.9692 32.3091 32.0675 33.6 28.8769 33.6C22.2071 33.6 16.8 27.9588 16.8 21C16.8 14.0412 22.2071 8.39999 28.8769 8.39999C32.0676 8.39999 34.9692 9.69088 37.1282 11.7994Z" fill="#E81B42"/>
</g>
<defs>
<clipPath id="clip0_37941_2230">
<rect width="64" height="42" rx="5" fill="white"/>
</clipPath>
</defs>
</svg>
